assets/icons/qvision/gif.svg

<svg xmlns="http://www.w3.org/2000/svg" enable-background="new 0 0 24 24" height="24" viewBox="0 0 24 24" width="24"><g><rect fill="none" height="24" width="24" x="0"/></g><g><g><rect height="6" width="1.5" x="11.5" y="9"/><path d="M9,9H6c-0.6,0-1,0.5-1,1v4c0,0.5,0.4,1,1,1h3c0.6,0,1-0.5,1-1v-2H8.5v1.5h-2v-3H10V10C10,9.5,9.6,9,9,9z"/><polygon points="19,10.5 19,9 14.5,9 14.5,15 16,15 16,13 18,13 18,11.5 16,11.5 16,10.5"/></g></g></svg>

<svg width="24" height="24" viewBox="0 0 24 24" fill="none" xmlns="http://www.w3.org/2000/svg">
<g clip-path="url(#clip0_147_4244)">
<path d="M13 9H11.5V15H13V9Z" fill="#323232"/>
<path d="M9 9H6C5.4 9 5 9.5 5 10V14C5 14.5 5.4 15 6 15H9C9.6 15 10 14.5 10 14V12H8.5V13.5H6.5V10.5H10V10C10 9.5 9.6 9 9 9Z" fill="#323232"/>
<path d="M19 10.5V9H14.5V15H16V13H18V11.5H16V10.5H19Z" fill="#323232"/>
</g>
<defs>
<clipPath id="clip0_147_4244">
<rect width="24" height="24" fill="white"/>
</clipPath>
</defs>
</svg>
